X:1
T: Lesley's March to Scotland
C:
R:Jig
Q:180
K:G
M:6/8
L:1/16
D2|:G6G6|G2B2A2 G4D2|G2E2E2 E4d2|e2d2B2 A2B2A2|
G6G6|G2B2A2 G4D2|G2F2E2 D4D2|E2G2B2 A4G2:|
|:G2B2d2 d2B2G2|e2d2B2 B2A2G2|G2B2d2 e2f2g2|G2A2B2 A4G2|
G2B2d2 d2B2G2|e2d2B2 B2A2G2|G2F2E2 D4D2|1E2G2B2 A6:|2D2F2A2 G6||
